X: 30527
T: On A Distant Shore
R: barndance
M: 4/4
K: Eminor
|:"em"B2 Bd "am"cBAe|"D"deBA "G"B3 A|"C"cBAE "B"^DEFA|"em"GFEB "C"ce"D"df|
"em"B2 Bc "am"cAAe|"D"deBA "B"B3 A|"C"GFEB "B"F3 G|"C D em" E8:|
"C"e3 f "D"edBe|"G"dBAB "G/B"dBAB|"C"G4 BcBA|"am"GEAG "D"FD D2|
"am"efef "bm"edBe|"G"dBAB "G/B"dBAB|"C"G4 BcBA|"C"GE"D"AG "em"E4|
"am"egfd "D"edBe|"G"dBAB "G/B"dBAB|"C"G4 "am"BcBA|"B"GEAG "D"FD D2|
"em"EGBA "A"^cABc|"em"AGAE "A"^cA A2|"G"GAB/^c/d "em"egfd|"A E"e8||
"B"AEFG "C"Aede|"am" =cBAc "em"BG E|"am" DEF/G/sA "D"Bede|"G"B2 BA "E/G#"B2 B/c/d|
"am"e2 ce "G"d2 Bd|"F" c2 Ac "em"BG E2|"C" BAGA FDEB|"C"c2 Bc e4|
"B"AEFG "C"Aede|"am"cBAc "em"BG E2|"am" DE "D"F2 "am"EG"D"FA|"am"GB"D"Ac "em"B2 B/c/d
"am"e2 cA "G"d2 BG|"dm"c3 A "C"B4|"F"A2 AB "em"AGEB|"dm"A3 B A2 "N.C."^F/G/A|

